X: 1
T: the Last March
C: John Morris Rankine
O: as played by Katie McNally
S: Concord Slow Scottish collection
R: march
Z: 2017 John Chambers <jc:trillian.mit.edu>
M: 2/4
L: 1/8
K: A
|:\
f>e f<a f2 e>c | BA  B<e c2 B<A | F2 EF AB c<e | f>e f<a c2 (3cde |
f>e f<a f2 e>c | B>A B<e c2 B<A | F2 EF AB c<A | B>A B<c A2 A2 :|
|:\
F2 E>F A>B c<e | f>e f<a c2 (3cde | f<a e<f Bc  fc  | B2 BA  B<c B<A |
F2 E>F A>B c<e | f>e f<a c2 (3cde | e<f c<e B>c e<c | BA B<c A2  A2 :|
